X:449
T:B449-  Still I'm Wishing, Still Desiring
Q:1/4=120
L:1/4
M:3/4
K:Dm
df2|e2a|(g3/4f/4 e3/4f/4 d3/4)e/4|(f3/2 e/)d|\
af2|(e3/4f/4gf3/4)e/4|(d3/4e/4fe3/4)d/4|^c2c||\
ef2|d2g|(f/e/ c/d/)f|e3|\
(ef3/4e/4 d3/4)e/4|(d3/4c/4 d/4=B3/4 c3/4)d/4|\
(c/4=B3/4 a/4^G3/4 a3/4)B/4|=B2A|\
d=B2|^c2d|e(f3/2g/)|(e3/2 f/)e|\
(f/g/) (g3/2f/4g/4)|a2(g/f/)|(g/f/)e3/2d/|d3|]
